X: 3330
T: Belles Of Clonallan, The
R: hornpipe
M: 4/4
K: Dmajor
|:F2|D>D D2 D>FA>F|d>FA>F d>FA>F|E>E E2 E>GB>G|e>GB>G e>GB>G|
D>D D2 D>FA>F|d>FA>F d>FA>F|E>gf>g e>dc>e|d2 d2 d2:|
|:e2|f>d d2 f>da>d|f>dd>f a2 e>d|c>A A2 c>Ae>A|c>AA>c e>gf>e|
f>d d2 f>da>d|f>dd>f a2 A2|B>ba>g f>ed>c|d2 d2 d2:|

